logos/iarpa.svg

<?xml version="1.0" encoding="UTF-8"?>
<!DOCTYPE svg PUBLIC "-//W3C//DTD SVG 1.1//EN" "http://www.w3.org/Graphics/SVG/1.1/DTD/svg11.dtd">
<svg xmlns="http://www.w3.org/2000/svg" version="1.1" width="165px" height="165px" style="shape-rendering:geometricPrecision; text-rendering:geometricPrecision; image-rendering:optimizeQuality; fill-rule:evenodd; clip-rule:evenodd" xmlns:xlink="http://www.w3.org/1999/xlink">
<g><path style="opacity:0.908" fill="#35b1e1" d="M 69.5,-0.5 C 77.8333,-0.5 86.1667,-0.5 94.5,-0.5C 133.283,7.95001 156.617,31.6167 164.5,70.5C 164.5,78.1667 164.5,85.8333 164.5,93.5C 156.509,132.824 132.842,156.491 93.5,164.5C 85.8333,164.5 78.1667,164.5 70.5,164.5C 31.1577,156.491 7.49103,132.824 -0.5,93.5C -0.5,85.8333 -0.5,78.1667 -0.5,70.5C 7.38323,31.6167 30.7166,7.95001 69.5,-0.5 Z"/></g>
<g><path style="opacity:1" fill="#063145" d="M 72.5,4.5 C 110.711,2.84164 137.878,19.175 154,53.5C 166.081,93.5952 154.914,125.429 120.5,149C 80.1164,167.861 45.9498,160.028 18,125.5C -2.85728,89.7035 0.642716,56.5369 28.5,26C 41.2545,14.7888 55.9211,7.62218 72.5,4.5 Z"/></g>
<g><path style="opacity:1" fill="#a8843d" d="M 66.5,39.5 C 63.1667,39.5 59.8333,39.5 56.5,39.5C 56.5,42.8333 56.5,46.1667 56.5,49.5C 55.5184,46.0381 55.185,42.3714 55.5,38.5C 59.3714,38.185 63.0381,38.5184 66.5,39.5 Z"/></g>
<g><path style="opacity:1" fill="#edb01b" d="M 66.5,39.5 C 66.5,42.8333 66.5,46.1667 66.5,49.5C 63.1667,49.5 59.8333,49.5 56.5,49.5C 56.5,46.1667 56.5,42.8333 56.5,39.5C 59.8333,39.5 63.1667,39.5 66.5,39.5 Z"/></g>
<g><path style="opacity:1" fill="#36b4e5" d="M 72.5,39.5 C 84.8333,39.5 97.1667,39.5 109.5,39.5C 109.5,55.8333 109.5,72.1667 109.5,88.5C 97.1667,88.5 84.8333,88.5 72.5,88.5C 72.5,83.8333 72.5,79.1667 72.5,74.5C 81.5,74.5 90.5,74.5 99.5,74.5C 99.5,66.1667 99.5,57.8333 99.5,49.5C 90.5,49.5 81.5,49.5 72.5,49.5C 72.5,46.1667 72.5,42.8333 72.5,39.5 Z"/></g>
<g><path style="opacity:1" fill="#2e82a3" d="M 72.5,39.5 C 84.989,38.5046 97.6557,38.1713 110.5,38.5C 110.5,55.5 110.5,72.5 110.5,89.5C 97.6557,89.8287 84.989,89.4954 72.5,88.5C 84.8333,88.5 97.1667,88.5 109.5,88.5C 109.5,72.1667 109.5,55.8333 109.5,39.5C 97.1667,39.5 84.8333,39.5 72.5,39.5 Z"/></g>
<g><path style="opacity:1" fill="#35b0e0" d="M 55.5,57.5 C 59.1667,57.5 62.8333,57.5 66.5,57.5C 66.5,79.8333 66.5,102.167 66.5,124.5C 62.8333,124.5 59.1667,124.5 55.5,124.5C 55.5,102.167 55.5,79.8333 55.5,57.5 Z"/></g>
<g><path style="opacity:1" fill="#36b4e5" d="M 99.5,95.5 C 102.833,95.5 106.167,95.5 109.5,95.5C 109.5,105.167 109.5,114.833 109.5,124.5C 106.167,124.5 102.833,124.5 99.5,124.5C 99.5,114.833 99.5,105.167 99.5,95.5 Z"/></g>
<g><path style="opacity:1" fill="#2e83a4" d="M 99.5,95.5 C 102.962,94.5184 106.629,94.185 110.5,94.5C 110.827,104.681 110.494,114.681 109.5,124.5C 109.5,114.833 109.5,105.167 109.5,95.5C 106.167,95.5 102.833,95.5 99.5,95.5 Z"/></g>
</svg>

<svg xmlns="http://www.w3.org/2000/svg" width="165" height="165" style="shape-rendering:geometricPrecision;text-rendering:geometricPrecision;image-rendering:optimizeQuality;fill-rule:evenodd;clip-rule:evenodd"><path style="opacity:.908" fill="#35b1e1" d="M69.5-.5h25c38.783 8.45 62.117 32.117 70 71v23c-7.991 39.324-31.658 62.991-71 71h-23c-39.342-8.009-63.009-31.676-71-71v-23c7.883-38.883 31.217-62.55 70-71z"/><path style="opacity:1" fill="#063145" d="M72.5 4.5c38.211-1.658 65.378 14.675 81.5 49 12.081 40.095.914 71.929-33.5 95.5-40.384 18.861-74.55 11.028-102.5-23.5C-2.857 89.704.643 56.537 28.5 26c12.755-11.211 27.421-18.378 44-21.5z"/><path style="opacity:1" fill="#a8843d" d="M66.5 39.5h-10v10c-.982-3.462-1.315-7.129-1-11 3.871-.315 7.538.018 11 1z"/><path style="opacity:1" fill="#edb01b" d="M66.5 39.5v10h-10v-10h10z"/><path style="opacity:1" fill="#36b4e5" d="M72.5 39.5h37v49h-37v-14h27v-25h-27v-10z"/><path style="opacity:1" fill="#2e82a3" d="M72.5 39.5a361.579 361.579 0 0 1 38-1v51a361.579 361.579 0 0 1-38-1h37v-49h-37z"/><path style="opacity:1" fill="#35b0e0" d="M55.5 57.5h11v67h-11v-67z"/><path style="opacity:1" fill="#36b4e5" d="M99.5 95.5h10v29h-10v-29z"/><path style="opacity:1" fill="#2e83a4" d="M99.5 95.5c3.462-.982 7.129-1.315 11-1 .327 10.181-.006 20.181-1 30v-29h-10z"/></svg>
